X:1
T:Doversdale, LM
T:Doversdale, LM
T:Samuel Stanley (1767–1822)
T:Public Domain Courtesy of the Cyber Hymnal™
C:Samuel Stanley (1767–1822)
Z:Public Domain
Z:Courtesy of the Cyber Hymnal™
%%score ( 1 2 ) ( 3 4 )
L:1/8
Q:1/4=110
M:3/4
K:D
V:1 treble 
V:2 treble 
V:3 bass 
V:4 bass 
V:1
 D2 | ([DA]>[EG] [DF]2) [CE]2 | D4 [EA]2 | (A2 B2) [Gc]2 | [Fd]4 [Fd]2 | [Fd]4 [Ed]2 | %6
 (c3 B) [CA]2 | [FB]2 [EA]2 [E^G]2 | [EA]4 [CA]2 | (A2 BA) ([EG][^DF]) | [EG]4 [EG]2 | %11
 ([EG]2 AG) ([DF]E) | [DF]4 [CA]2 | A2 B2 [Gc]2 | [Fd]4 A2 | ([FA][EG] [DF]2) [CE]2 | D4 |] %17
V:2
 D2 | x6 | D4 x2 | D4 x2 | x6 | x6 | E4 x2 | x6 | x6 | F4 x2 | x6 | x2 C2 x2 | x6 | D4 x2 | %14
 x4 (DF) | x6 | D4 |] %17
V:3
 D,2 | ([F,A,]>[G,B,] A,2) [A,,A,]2 | [B,,F,]4 [C,E,]2 | ([D,F,]2 G,2) [E,G,]2 | [D,A,]4 [D,A,]2 | %5
 ([B,D]3 [A,C]) [^G,B,]2 | (A,2 [E,^G,]2) [F,A,]2 | [D,D]2 [E,C]2 [E,B,]2 | [A,,C]4 [F,A,]2 | %9
 [^D,B,]4 [B,,B,]2 | [E,B,]4 [D,B,]2 | A,4 A,2 | [D,A,]4 [E,G,]2 | [F,A,]2 G,2 [E,G,]2 | %14
 [B,,B,]4 [F,A,]2 | ([G,B,]2 A,2) [A,,A,]2 | [D,F,]4 |] %17
V:4
 D,2 | x2 A,2 x2 | x6 | x6 | x6 | x6 | x6 | x6 | x6 | x6 | x6 | (C,2 A,,2) (B,,C,) | x6 | x6 | x6 | %15
 x6 | x4 |] %17

